client/public/assets/icons/utility/feed.svg

<?xml version="1.0"?><svg xmlns="http://www.w3.org/2000/svg" width="52" height="52" viewBox="0 0 52 52"><path fill="#fff" d="m25.2 43c-0.3 0-0.7-0.1-1.1-0.3-0.6-0.3-1.1-1-1.2-1.6l-5.7-23.1-4.9 11c-0.3 0.9-1.1 1.4-2 1.4h-6.8c-0.8 0-1.5-0.6-1.5-1.4v-1.5c0-0.8 0.7-1.5 1.5-1.5h5.2l6.9-15.7c0.4-0.8 1.3-1.4 2.3-1.3 1 0.1 1.8 0.7 2 1.7l5.9 23.4 7.9-17.1c0.4-0.9 1.3-1.4 2.2-1.3 0.8 0.1 1.6 0.7 2 1.5l3.9 8.9h6.8c0.8 0 1.5 0.7 1.5 1.5v1.4c0 0.8-0.7 1.5-1.5 1.5h-8.2c-0.9 0-1.7-0.5-2.1-1.3l-2.5-5.7-8.4 18.3c-0.5 0.7-1.2 1.2-2.2 1.2z"></path></svg>

<?xml version="1.0" encoding="utf-8"?>
<!-- Generator: Adobe Illustrator 18.1.1, SVG Export Plug-In . SVG Version: 6.00 Build 0)  -->
<svg version="1.1" id="Layer_1" xmlns="http://www.w3.org/2000/svg" xmlns:xlink="http://www.w3.org/1999/xlink" x="0px" y="0px"
	 width="52px" height="52px" viewBox="0 0 52 52" enable-background="new 0 0 52 52" xml:space="preserve">
<g>
	<g>
		<path fill="#FFFFFF" d="M25.2,43c-0.3,0-0.7-0.1-1.1-0.3c-0.6-0.3-1.1-1-1.2-1.6L17.2,18l-4.9,11c-0.3,0.9-1.1,1.4-2,1.4H3.5
			C2.7,30.4,2,29.8,2,29v-1.5C2,26.7,2.7,26,3.5,26h5.2l6.9-15.7C16,9.5,16.9,8.9,17.9,9c1,0.1,1.8,0.7,2,1.7l5.9,23.4L33.7,17
			c0.4-0.9,1.3-1.4,2.2-1.3c0.8,0.1,1.6,0.7,2,1.5l3.9,8.9h6.8c0.8,0,1.5,0.7,1.5,1.5V29c0,0.8-0.7,1.5-1.5,1.5h-8.2
			c-0.9,0-1.7-0.5-2.1-1.3l-2.5-5.7l-8.4,18.3C26.9,42.5,26.2,43,25.2,43z"/>
	</g>
</g>
</svg>
